assets/raw/rboardThemeCreator.svg

<svg xmlns="http://www.w3.org/2000/svg" width="432" height="432" fill="none">
    <path fill="%accent_background%" d="M0 0h432v432H0z" />
    <path fill="%desaturated_accent%" d="M133 270.94a4.97 4.97 0 0 1 4.97-4.97h9.844a4.97 4.97 0 0 1 4.97 4.97v10.071a4.97 4.97 0 0 1-4.97 4.97h-9.844a4.97 4.97 0 0 1-4.97-4.97V270.94ZM153.773 306.959a4.97 4.97 0 0 1 4.97-4.97h112.718a4.97 4.97 0 0 1 4.97 4.97v11.071a4.97 4.97 0 0 1-4.97 4.97H158.743a4.97 4.97 0 0 1-4.97-4.97v-11.071ZM174.569 265.97a4.97 4.97 0 0 0-4.969 4.97v10.071a4.97 4.97 0 0 0 4.969 4.97h9.844a4.97 4.97 0 0 0 4.97-4.97V270.94a4.97 4.97 0 0 0-4.97-4.97h-9.844ZM240.82 270.94a4.97 4.97 0 0 1 4.97-4.97h9.844a4.97 4.97 0 0 1 4.97 4.97v10.071a4.97 4.97 0 0 1-4.97 4.97h-9.844a4.97 4.97 0 0 1-4.97-4.97V270.94ZM282.39 265.97a4.97 4.97 0 0 0-4.97 4.97v10.071a4.97 4.97 0 0 0 4.97 4.97h9.844a4.97 4.97 0 0 0 4.97-4.97V270.94a4.97 4.97 0 0 0-4.97-4.97h-9.844ZM133 236.242a4.97 4.97 0 0 1 4.97-4.97h9.844a4.97 4.97 0 0 1 4.97 4.97v10.071a4.97 4.97 0 0 1-4.97 4.97h-9.844a4.97 4.97 0 0 1-4.97-4.97v-10.071ZM282.39 231.272a4.97 4.97 0 0 0-4.97 4.97v10.071a4.97 4.97 0 0 0 4.97 4.97h9.844a4.97 4.97 0 0 0 4.97-4.97v-10.071a4.97 4.97 0 0 0-4.97-4.97h-9.844Z" />
    <path fill="%desaturated_accent%" fill-rule="evenodd" d="M273.072 226.549a25.909 25.909 0 0 0 9.292-19.878V113h-97.659c-20.363 0-36.871 16.508-36.871 36.871v56.915a25.908 25.908 0 0 0 9.146 19.756l53.141 45.089a6.974 6.974 0 0 0 8.987.033l53.964-45.115Zm-105.308-30.838v13.843h46.932l47.737-.088v-13.755h-94.669Zm94.669-19.93V132.93h-8.968v23.917c0 5.503-4.462 9.965-9.966 9.965-5.503 0-9.965-4.462-9.965-9.965V132.93h-8.968v6.976c0 5.504-4.462 9.965-9.966 9.965-5.503 0-9.965-4.461-9.965-9.965v-6.976h-19.93c-9.356 0-16.941 7.585-16.941 16.941v25.91h94.669Z" clip-rule="evenodd" />
</svg>

<svg width="432" height="432" viewBox="0 0 432 432" fill="none" xmlns="http://www.w3.org/2000/svg">
    <rect width="432" height="432" fill="%accent_background%" />
    <path d="M133 270.94C133 268.195 135.225 265.97 137.97 265.97H147.814C150.559 265.97 152.784 268.195 152.784 270.94V281.011C152.784 283.756 150.559 285.981 147.814 285.981H137.97C135.225 285.981 133 283.756 133 281.011V270.94Z" fill="%desaturated_accent%" />
    <path d="M153.773 306.959C153.773 304.214 155.998 301.989 158.743 301.989H271.461C274.206 301.989 276.431 304.214 276.431 306.959V318.03C276.431 320.775 274.206 323 271.461 323H158.743C155.998 323 153.773 320.775 153.773 318.03V306.959Z" fill="%desaturated_accent%" />
    <path d="M174.569 265.97C171.825 265.97 169.6 268.195 169.6 270.94V281.011C169.6 283.756 171.825 285.981 174.569 285.981H184.413C187.158 285.981 189.383 283.756 189.383 281.011V270.94C189.383 268.195 187.158 265.97 184.413 265.97H174.569Z" fill="%desaturated_accent%" />
    <path d="M240.82 270.94C240.82 268.195 243.045 265.97 245.79 265.97H255.634C258.379 265.97 260.604 268.195 260.604 270.94V281.011C260.604 283.756 258.379 285.981 255.634 285.981H245.79C243.045 285.981 240.82 283.756 240.82 281.011V270.94Z" fill="%desaturated_accent%" />
    <path d="M282.39 265.97C279.645 265.97 277.42 268.195 277.42 270.94V281.011C277.42 283.756 279.645 285.981 282.39 285.981H292.234C294.979 285.981 297.204 283.756 297.204 281.011V270.94C297.204 268.195 294.979 265.97 292.234 265.97H282.39Z" fill="%desaturated_accent%" />
    <path d="M133 236.242C133 233.497 135.225 231.272 137.97 231.272H147.814C150.559 231.272 152.784 233.497 152.784 236.242V246.313C152.784 249.057 150.559 251.283 147.814 251.283H137.97C135.225 251.283 133 249.057 133 246.313V236.242Z" fill="%desaturated_accent%" />
    <path d="M282.39 231.272C279.645 231.272 277.42 233.497 277.42 236.242V246.313C277.42 249.057 279.645 251.283 282.39 251.283H292.234C294.979 251.283 297.204 249.057 297.204 246.313V236.242C297.204 233.497 294.979 231.272 292.234 231.272H282.39Z" fill="%desaturated_accent%" />
    <path fill-rule="evenodd" clip-rule="evenodd" d="M273.072 226.549C278.961 221.626 282.364 214.346 282.364 206.671V113H184.705C164.342 113 147.834 129.508 147.834 149.871V206.786C147.834 214.395 151.178 221.619 156.98 226.542L210.121 271.631C212.709 273.828 216.503 273.842 219.108 271.664L273.072 226.549ZM167.764 195.711V209.554H214.696L262.433 209.466V195.711H167.764ZM262.433 175.781V132.93H253.465V156.847C253.465 162.35 249.003 166.812 243.499 166.812C237.996 166.812 233.534 162.35 233.534 156.847V132.93H224.566V139.906C224.566 145.41 220.104 149.871 214.6 149.871C209.097 149.871 204.635 145.41 204.635 139.906V132.93H184.705C175.349 132.93 167.764 140.515 167.764 149.871V175.781H262.433Z" fill="%desaturated_accent%" />
</svg>
